src/assets/images/ranks/solo_unranked.svg

<svg height="240" viewBox="0 0 160 240" width="160" xmlns="http://www.w3.org/2000/svg"><g fill="none" fill-rule="evenodd"><path d="m32 57.3209354c11.7432098-14.2139569 27.6926103-21.3209354 47.8482015-21.3209354 20.1555915 0 36.1049915 7.1069785 47.8482015 21.3209354v108.2467506l-47.9235036 38.432314-47.7728994-38.432314z" fill="#625549"/><path d="m46 67.9823818c8.2520419-9.9882545 19.4598057-14.9823818 33.6232913-14.9823818s25.3712497 4.9941273 33.6232917 14.9823818v84.0109422l-33.6762071 27.006676-33.5703759-27.006676z" fill="#7e7468"/><path d="m79.7092325 157.243411c-1.142972-3.005204-2.044767-5.756557-2.705385-8.25406-.7156696-2.705628-1.5996724-7.116277-2.6520083-13.231947v-32.45498l-2.2664535-.98112c-1.7080687-.099873-2.9420814.02576-3.702038.3769-.7599567.351141-1.5494482 1.160473-2.3684748 2.427998-1.0017058-.097727-1.6164063-.296485-1.8441015-.596276-.2276952-.29979-.2276952-.910364 0-1.831722.6225922-.563884 1.9128701-1.338835 3.8708337-2.324851 1.2908426-.6500593 4.5150523-1.3750958 6.3102341-2.1703217.6185126-.2739874 1.0532352-.7035571 1.3041677-1.2887089.4479538-.1534205.6719307-1.0725615.6719307-2.7574232 0-2.5272924-.3854738-11.3666793 0-13.4326494.2569825-1.3773134.6933175-2.8692079 1.309005-4.4756836-.8142831-.829989-1.3411781-1.5770673-1.5806853-2.2412348-.1474404-.4088612-.5471398-1.5900859-.4002504-2.6551788.2110287-1.530165 1.090064-3.0326227 1.5761875-3.4528689.5496644-.4751764 1.4722663-.7749376 2.7678056-.8992837 1.2955393.1243461 2.2181412.4241073 2.7678056.8992837.4861235.4202462 1.3651588 1.9227039 1.5761875 3.4528689.1468894 1.0650929-.25281 2.2463176-.4002504 2.6551788-.2395072.6641675-.7664022 1.4112458-1.5806853 2.2412348.6156875 1.6064757 1.0520225 3.0983702 1.309005 4.4756836.3854738 2.0659701 0 10.905357 0 13.4326494 0 1.6848617.2239769 2.6040027.6719307 2.7574232.2509325.5851518.6856551 1.0147215 1.3041677 1.2887089 1.7951818.7952259 5.0193915 1.5202624 6.3102341 2.1703217 1.9579636.986016 3.2482415 1.760967 3.8708337 2.324851.2276952.921358.2276952 1.531932 0 1.831722-.2276952.299791-.8423957.498549-1.8441015.596276-.8190266-1.267525-1.6085181-2.076857-2.3684748-2.427998-.7599566-.35114-1.9939693-.476773-3.702038-.3769l-2.2664535.98112v32.45498c-1.0523359 6.11567-1.9363387 10.526319-2.6520083 13.231947-.7156695 2.705629-1.714387 5.709178-2.9961525 9.010649z" fill="#ffddb6"/></g></svg>

<?xml version="1.0" encoding="UTF-8"?>
<svg width="160px" height="240px" viewBox="0 0 160 240" version="1.1" xmlns="http://www.w3.org/2000/svg" xmlns:xlink="http://www.w3.org/1999/xlink">
    <title>solo_unranked</title>
    <g id="solo_unranked" stroke="none" stroke-width="1" fill="none" fill-rule="evenodd">
        <path d="M32,57.3209354 C43.7432098,43.1069785 59.6926103,36 79.8482015,36 C100.003793,36 115.953193,43.1069785 127.696403,57.3209354 L127.696403,165.567686 L79.7728994,204 L32,165.567686 L32,57.3209354 Z" id="Rectangle-Copy-84" fill="#625549"></path>
        <path d="M46,67.9823818 C54.2520419,57.9941273 65.4598057,53 79.6232913,53 C93.7867769,53 104.994541,57.9941273 113.246583,67.9823818 L113.246583,151.993324 L79.5703759,179 L46,151.993324 L46,67.9823818 Z" id="Rectangle-Copy-85" fill="#7E7468"></path>
        <path d="M79.7092325,157.243411 C78.5662605,154.238207 77.6644655,151.486854 77.0038475,148.989351 C76.2881779,146.283723 75.4041751,141.873074 74.3518392,135.757404 L74.3518392,103.302424 L72.0853857,102.321304 C70.377317,102.221431 69.1433043,102.347064 68.3833477,102.698204 C67.623391,103.049345 66.8338995,103.858677 66.0148729,105.126202 C65.0131671,105.028475 64.3984666,104.829717 64.1707714,104.529926 C63.9430762,104.230136 63.9430762,103.619562 64.1707714,102.698204 C64.7933636,102.13432 66.0836415,101.359369 68.0416051,100.373353 C69.3324477,99.7232937 72.5566574,98.9982572 74.3518392,98.2030313 C74.9703518,97.9290439 75.4050744,97.4994742 75.6560069,96.9143224 C76.1039607,96.7609019 76.3279376,95.8417609 76.3279376,94.1568992 C76.3279376,91.6296068 75.9424638,82.7902199 76.3279376,80.7242498 C76.5849201,79.3469364 77.0212551,77.8550419 77.6369426,76.2485662 C76.8226595,75.4185772 76.2957645,74.6714989 76.0562573,74.0073314 C75.9088169,73.5984702 75.5091175,72.4172455 75.6560069,71.3521526 C75.8670356,69.8219876 76.7460709,68.3195299 77.2321944,67.8992837 C77.7818588,67.4241073 78.7044607,67.1243461 80,67 C81.2955393,67.1243461 82.2181412,67.4241073 82.7678056,67.8992837 C83.2539291,68.3195299 84.1329644,69.8219876 84.3439931,71.3521526 C84.4908825,72.4172455 84.0911831,73.5984702 83.9437427,74.0073314 C83.7042355,74.6714989 83.1773405,75.4185772 82.3630574,76.2485662 C82.9787449,77.8550419 83.4150799,79.3469364 83.6720624,80.7242498 C84.0575362,82.7902199 83.6720624,91.6296068 83.6720624,94.1568992 C83.6720624,95.8417609 83.8960393,96.7609019 84.3439931,96.9143224 C84.5949256,97.4994742 85.0296482,97.9290439 85.6481608,98.2030313 C87.4433426,98.9982572 90.6675523,99.7232937 91.9583949,100.373353 C93.9163585,101.359369 95.2066364,102.13432 95.8292286,102.698204 C96.0569238,103.619562 96.0569238,104.230136 95.8292286,104.529926 C95.6015334,104.829717 94.9868329,105.028475 93.9851271,105.126202 C93.1661005,103.858677 92.376609,103.049345 91.6166523,102.698204 C90.8566957,102.347064 89.622683,102.221431 87.9146143,102.321304 L85.6481608,103.302424 L85.6481608,135.757404 C84.5958249,141.873074 83.7118221,146.283723 82.9961525,148.989351 C82.280483,151.69498 81.2817655,154.698529 80,158 Z" id="Combined-Shape-Copy-29" fill="#FFDDB6"></path>
    </g>
</svg>
